X:14419
T:Rolling in the Ryegrass
M:4/4
L:1/8
R:Reel
K:D
|:A2AF DFAF|G2BG dGBG|A2AF DFAF|GBAF E2D2:|:ABde f2df|g2eg fedB|ABd
ef2df|afdfe2d2:|
